X:1
T:Title
%%score ( 1 2 ) { 3 | ( 4 5 ) }
L:1/8
Q:1/4=90
M:3/8
K:C
V:1 treble nm="Grand Piano, Soprano"
V:2 treble 
V:3 bass nm="Choir Pad, Bethlehem Land, Stubbs"
V:4 bass 
V:5 bass 
V:1
 [CG]2 [FG] | [EG]2 [Dc] | [CG]2 [FG] | [EG]3 | [Gc]2 [CE] | [CF]2 [DG] | [FA]2 [FB] | [EA]3 | %8
w: By~Thomas~Tertius~Noble *||||||||
 [Ad]3 | [FA]2 [DF] | E->[B,E-][^CE] | [A,D]2 z | [Fd]2 [FB] | [Gc]2 [EA] | [Fd]2 [FB] | %15
w: |||||||
 c->[Fc-][Ec] | [Ee]2 [Ed] | [Ec]2 [EA] | [Dd]2 [Dc] | B->[AB-][GB] | [Ec]3 | [FA]2 [CF] | D3 | %23
w: ||||||||
 [G,C]3- | [G,C]3- | [G,C] z z |] %26
w: |||
V:2
 x3 | x3 | x3 | x3 | x3 | x3 | x3 | x3 | x3 | x3 | ^C2 z | x3 | x3 | x3 | x3 | G2 z | x3 | x3 | %18
 x3 | D2 z | x3 | x3 | B,>A,B, | x3 | x3 | x3 |] %26
V:3
 E,2 A, | G,2 F, | E,2 A, | G,3 | E2 C | C2 B, | C2 D | C3 | F3 | C,2 A,, | F,,3 | F,2 z | %12
 [G,B,]2 D | E2 C | B,2 D | E>DC | [^G,B,]2 B, | [A,C]2 C | [^F,A,]2 A, | G,>CB, | [G,_B,]3 | %21
 [F,C]2 A, | F,3 | E,3- | E,3- | E, z z |] %26
V:4
 C,2 C, | C,2 C, | C,2 C, | C,3 | C2 B, | A,2 G, | F,>E,D, | A,3 | D,3 | A,,2 E,, | D,,>C,,D,, | %11
 D,2 z | z z G, | G,2 G, | G,2 G, | G,3 | z z ^G, | z z A, | z z ^F, | A,,3 | C,,3 | F,,2 A,, | %22
 G,,3 | C,3- | C,3- | C, z z |] %26
V:5
 x3 | x3 | x3 | x3 | x3 | x3 | x3 | x3 | x3 | x3 | x3 | x3 | G,,3- | G,,3- | G,,3- | G,,3 | E,,3 | %17
 A,,3 | E,,3 | x3 | x3 | x3 | x3 | x3 | x3 | x3 |] %26

